X:1
T:Come vuoi
T:Come vuoi
T:Enrico Radesca di Foggia
T:Source : Canzonette a 2 voci---Libro III---Venetia---G.Vincenti---1616. Editor : André Vierendeels (09/04/14).
C:Enroco Radesca di Foggio
%%score [ 1 2 ] 3
L:1/8
Q:1/4=85
M:4/4
K:C
V:1 treble nm="Soprano" snm="S"
V:2 bass nm="Bass" snm="B"
V:3 bass nm="MusicXML Part"
V:1
 z4 z2 B2 | d2 d2 c2 A2 | B6 A2 | G3 A A4 | G4 z2 B2 | c2 d2 e4 | d4 f2 f2 | e2 e2 d4 | c8 :: %9
w: Co-|me vuoi c'hab- bia'in|te piu|fe- de'A- mo-|re, se|mi tra- de-|sti for- to|fe- de'il co-|re,|
w: Poi|che nel pet- to|mio ri-|no- va'il fo-|co, con|tue'in- sin- ghe,-|el mio mal|pren- di'a gio-|co,|
w: Pur|voi che ne' tuoi'in-|gan- ni'hab-|bi fi- dan-|za, e|al- mi- se-|ro cor do-|ni spe- ran-|za,|
w: O|spe- me'o co- re'o|fe ben|che fal- la-|ce, ec-|co ch'io tor-|no'a voi, poi|ch'a voi pia-|ce:|
[M:3/4] d2 c2 A2 | B4 B2 | G2 A3 ^F | G4 G2 | e6 | d4 c2 | B4 B2 | A6 | c6 | B4 A2 | A4 A2 | G6 :| %21
w: fe mi mo-|stra- sti,|poi m'in- gan-|na- sti,|ahi|fè fal-|la- ce'ahi|me,|ahi|fè fal-|la- ce'ahi|me.|
w: gia d'a- mor|pie- no,|vi- d'il bel|se- no,|ahi|co- re'in-|gra- to'ahi|me,|||||
w: e al pen-|sier mio|giun- ge'il de-|si- o,|ahi|spe- rar|va- no'ahi|me,|||||
w: non piu mar-|ti- re|al mio ser-|vi- re,|non|piu tor-|men- ti'ahi|me,|||||
V:2
 z4 z2 G,2 | G,2 G,2 A,2 ^F,2 | G,4 D,4 | E,2 C,2 D,4 | G,,4 z2 G,2 | F,2 D,2 C,4 | G,4 D,2 D,2 | %7
w: Co-|me vuoi c'hab- ba'in|te piu|fe- de'A- mo-|re, se|mi tra- d-|sti for- to|
w: Poi|che nel pet- to|mio ri-|no- va'il fo-|co, con|me'in- sin- ghe,|el mio mal|
w: Pur|voi che ne' tuoi'in-|gan- nihab-|bi fi- dan-|za, e|al mi- se-|ro cor do-|
w: O|spe- me'o co- re'o|fe ben|che fal- la-|ce, ec-|co ch'io tor-|no'a voi, poi|
 E,3 F, G,4 | C,8 ::[M:3/4] G,2 A,2 ^F,2 | G,4 G,2 | E,2 C,2 D,2 | G,,4 G,,2 | C,6 | D,4 A,,2 | %15
w: fe- de'il co-|re,|fe mi mo-|stra- sti,|poi m'in- gan-|na- sti,|ahi|fè fal-|
w: pren- di'a gio-|co,|gia d'a- mor|pie- no,|vi- d'il bel|se- no,|ahi|co- re'in|
w: ni spe- ran-|za,|e al pen-|sier mio|giun- ge'il de-|si- o,|ahi|spe- rar|
w: ch'a voi pia-|ce:|non piu mar-|ti- re|al mio ser-|vi- re,|non|piu tor-|
 E,4 E,2 | A,,6 | A,,6 | B,,4 C,2 | D,4 D,2 | G,,6 :| %21
w: la- ce'ahi|me,|ahi|fè fal-|la- ce'ahi|me.|
w: gra- to'ahi|me,|||||
w: va- no'hi|me,|||||
w: men- t'ahi|me,|||||
V:3
 z4 G,4 | G,4 A,2 ^F,2 | G,4 D,4 | E,2 C,2 D,4 | G,,4 G,4 | F,2 D,2 C,4 | G,4 D,4 | E,3 F, G,4 | %8
 C,8 ::[M:3/4] G,2 A,2 ^F,2 | G,6 | E,2 C,2 D,2 | G,,6 | C,6 | D,4 A,,2 | E,6 | A,,6 | A,,6 | %18
 B,,4 C,2 | D,6 | G,,6 :| %21

